app/images/icons/linkedin.svg

<svg viewBox="0 0 20 20" xmlns:xlink="http://www.w3.org/1999/xlink" width="20" height="20" fill="none" xmlns="http://www.w3.org/2000/svg"><path d="M5 3c0 1.1-.7 2-2 2-1.2 0-2-.9-2-1.9C1 2 1.8 1 3 1s2 .9 2 2zM1 19h4V6H1v13zM14.6 6.2c-2.1 0-3.3 1.2-3.8 2h-.1l-.2-1.7H6.9c0 1.1.1 2.4.1 3.9V19h4v-7.1c0-.4 0-.7.1-1 .3-.7.8-1.6 1.9-1.6 1.4 0 2 1.2 2 2.8V19h4v-7.4c0-3.7-1.9-5.4-4.4-5.4z" fill="#444344"></path></svg>

<?xml version="1.0" encoding="UTF-8" standalone="no"?>
<!DOCTYPE svg PUBLIC "-//W3C//DTD SVG 1.1//EN" "http://www.w3.org/Graphics/SVG/1.1/DTD/svg11.dtd">
<svg width="100%" height="100%" viewBox="0 0 20 20" version="1.1" xmlns="http://www.w3.org/2000/svg" xmlns:xlink="http://www.w3.org/1999/xlink" xml:space="preserve" xmlns:serif="http://www.serif.com/" style="fill-rule:evenodd;clip-rule:evenodd;stroke-linejoin:round;stroke-miterlimit:2;">
<title>LinkedIn</title>
    <g transform="matrix(1.11111,0,0,1.11111,-1.11111,-1.11111)">
        <path d="M5,3C5,4.1 4.3,5 3,5C1.8,5 1,4.1 1,3.1C1,2 1.8,1 3,1C4.2,1 5,1.9 5,3ZM1,19L5,19L5,6L1,6L1,19ZM14.6,6.2C12.5,6.2 11.3,7.4 10.8,8.2L10.7,8.2L10.5,6.5L6.9,6.5C6.9,7.6 7,8.9 7,10.4L7,19L11,19L11,11.9C11,11.5 11,11.2 11.1,10.9C11.4,10.2 11.9,9.3 13,9.3C14.4,9.3 15,10.5 15,12.1L15,19L19,19L19,11.6C19,7.9 17.1,6.2 14.6,6.2Z" style="fill:currentColor;fill-rule:nonzero;"/>
    </g>
</svg>
